X:1
T:BWV 1001
T:Johann Sebastian Bach
%%score ( 1 2 )
L:1/8
Q:1/4=60
M:4/4
K:F
V:1 treble nm="ヴァイオリン"
V:2 treble 
V:1
"^Adagio" g2- g/4f/4_e/4d/4c/4B/4A/4B/8G/8 G^F- F/4E/4D/4E/4F/4G/4A/4c/8B/8 | %1
 c-c/4d/8c/8B/4c/4 Tc3/4B/8c/8d/A/ B z/4 G/4A/8B/8c/8d/8 _eB | %2
 B/A/_e/d/ z b/^f/ d/d/4e/4d/4c/4B/4c/8A/8 B/4^F/4G/4D/4_E/4d/8c/8B/8c/8c/8B/16c/16 | %3
 gT^f ac B/d/f/a/ gB | A/b/4a/8g/8Tf/>e/ fA f/d/_e b/g/g/e/ | %5
 _e/^c/a F/>a/g/4f/4=e/4d/4 E/d/g/e/ d/c/A/g/ | %6
 D/g/f/g/4e/4 fA A/D/G/f/ e-e/8f/8g/8a/8b/8e/8f/8g/8 | %7
 d^c G/4F/G/8E/8F/d/ d/4>c/4=B/4c/4d/4e/4f/4g/8e/8Tc>d | %8
 d2- d/4d/4c/4B/4A/8B/8A/8B/8TB/4A/8B/8 c/_e/4d/4e- e/4e/4d/4c/4B/c/4A/4 | %9
 A/4BG/4B/4d/4 g/4f/4_e/4d/4c/4B/4A/8G/8^F/8G/8 GF =F3/4G/8_A/8G/4F/4_E/4F/8D/8 | %10
 [C=B]/d/d/c/ _e/d/d/e/{e} d/>_B/c/4d/4e/4f/8g/8 _a/B/D/a/ | %11
 _E/_a/g _d_E/4G/4B/4d/4 _A,/c/ a/g/4f/4 _eT=d/>e/ | %12
 !fermata!_G2 =B,/4D/4F/4_A/4=B/4d/4f/4_a/8g/8 g/-g/4a/8g/8^f/8g/8d/8_e/8B/8c/8^F/4 G/4e/d/Tc/8B/8c/ | %13
 c3/4B/8_A/8G/4F/4_E/4D/4 C/4=B,/4C/4G,/4C/4E/4G/4c/4 D/c/4f/4T=B- B/4=A/4G/4A/4B/4c/4d/4f/8_e/8 | %14
 f2- f/4_a/4g/4f/4g/4f/4_e/4d/4 e z/4 c/4d/8e/8f/8g/8 ae | %15
 _e/d/_a/g/ z e/=B/ c/>B/_A/4G/4A/4c/4 f/4g/4e/4f/<Tf/e/8f/8 | c=Bdd G/4B/4d/4f/4 _a/g/ _ef | %17
 _e/-e/4d/4c/4d/4c/8B/8c/8A/8 B/-B/8A/8G/8^F/8G/4D/4B,/4G,/4 C/4_E/4B/4G/4_A e/c/c/=A/ | %18
 ^f/4g/4a/4f/4d B,/>d/c/4B/4A/4B/8G/8 A,/G/c/A/ G/^F/D/c/ | %19
 G,/>c/B/c/4A/4 B/>G,/A,/C/4B,/4 C/D/_E/G/ _A/=B/c/_e/ | %20
 g^f b/b/8a/8g/8f/8g g/>B/c/4d/4e/4f/4 g/8a/8b/8a/8b/8g/8_a/4f/8g/8g/Tf/8>g/8 | !fermata![Bg]8 | %22
 z8 |[M:4/4][Q:1/4=132]"^Allegro""^Fuga" z ddd dc/B/ cA | z GGG GF/E/ FD | z ggg gf/_e/ fd | %26
 _e2 C/B/A/B/4c/4 z ddd | dc/B/ cA B z b z | ba/g/ a/^f/g f z z2 | %29
 D/A/^c/e/ f/a/d/=c/ =B/d/f/_a/ g/f/_e/d/ | _e/G/c/d/ e/g/c/B/ A/c/e/g/ f/e/d/c/ | %31
 d/A/B/^F/ G/B/d/=F/ E/G/B/d/ c/A/B/G/ | ^F/A/c/_e/ d/c/B/A/ B/G/d/=F/ _E/d/g/c/ | %33
 ^f z bb ba/g/ aa | _a/g/a/^f/ g=f [C_e]dc_B | _A/^F/F/G/ G/B,/A,/G,/ A,/G/c/_e/ D/G/A/F/ | %36
 Gd'd'd' d'c'/b/ c'a | b z _e' z a z d'2- | d'c'c'c' c'b/a/ bg | a z d' z g z c'2- | %40
 c'bbb ba/g/ ab/a/ | g z c' z c'b/a/ bc'/b/ | a z d' z d' z [ec'] z | %43
 [df] z [^cb] z [da][df][dg][da] | bag z gf/e/ ff | fe/d/ e^c d z2 d | [A,d] z ^c>d d z D z | %47
 E z2 ^F GGGG | GF/_E/ FD z ccc | cB/A/ [GB]c/B/ A z d z | de/f/ e/d/^c/d/ caaa | %51
 ag/f/ gg gf/e/ ff | baa^g gaa^f | ^fg ge e=f fd | d_ee^c cb/^g/ ac | db/^g/ a^c' d'=c'c'b | %56
 baa^c' c'd'd'g | g>a f d/d/ d/d/d/d/ d/d/d/d/ | [^ce]4 [Fa][Eg][Fa][Df] | [Eg]4 gfge | %60
 [df]/D/[^ce]/D/ [df]/D/[eg]/D/ [fa][gb][fa][eg] | [df][^ce][df][eg] [fa][eg][fa][d=b] | %62
 [e^c'][d=b][ec'][fd'] [ge'][af'][ge'][fd'] | [e^c'][d=b][ec'][fd'] [ge'][fd'][ge'][ec'] | %64
 D/d/f/a/ d'/a/f/d/ A/d'/c'/b/ c'/a/^f/d/ | G,/G/B/d/ g/d/B/G/ D/g/f/_e/ f/d/=B/G/ | %66
 C/c/_e/g/ c'/g/e/c/ G/c'/b/a/ b/g/=e/c/ | F/c/f/g/ _a/f/d/B/ _E/B/_e/f/ g/e/c/A/ | %68
 f/d/=B/G/ _e/c/_A/F/ _d/B/G/_E/ c/A/F/D/ | G,/D/F/=B/ d/B/F/D/ G,/D/F/B/ d/B/F/D/ | %70
 G,/C/_E/G/ c/G/E/C/ G,/C/E/G/ c/G/E/C/ | _A,/C/_E/G/ c/G/E/C/ A,/C/E/G/ c/G/E/C/ | %72
 A,/D/^F/A/ c/A/F/D/ A,/D/F/A/ c/A/F/D/ | G,/C/_E/G/ c/_e/_d/=B/ c/_b/_a/^f/ g/=f/=e/f/ | %74
 [=Bf] z [_ec'] z [dc'] z [d=b][fd'] | _E/c/g/=B/ cc gf/_e/ fd | _ed/c/ _d=B c>=d B>c | %77
 cCCC D z z =E | FFA z B z c z | z f[Bf]f [Bf]_e/d/ ec/d/4e/4 | %80
 d[db][db][db] [db][ca]/[Bg]/ [ca][d=b] | [_ec'][ec'][ec'][ec'] c'b/a/ bc'/g/ | %82
 ab/f/ ga/g/ fg/d/ _e/c/A/F/ | z [Fd][Fd][Fd] [Fd][G_e]/[Fd]/ [_Ec][DB] | %84
 [_EA][Bf][Bf][Bf] [Bf]g/f/ [F_e][Fd] | ga/b/ b/a/g/f/ bf _e/d/c/B/ | %86
 B,/d/c/d/ B/d/A/d/ G/d/F/d/ _E/d/D/d/ | _E/d/g/f/ _e/d/c/B/ A/c/G/c/ ^F/c/=E/c/ | %88
 D/c/a/c/ B/A/B/G/ A/D/f/_A/ G/F/G/_E/ | F/B,/d/F/ _E/D/E/C/ D/G,/B/D/ E/C/c/=E/ | %90
 ^F/D/A/F/ c/A/_e/c/ ^f/c/a/f/ e/c/A/F/ | D/c/^f/c/ f/c/a/c/ D/c/f/c/ f/c/a/c/ | %92
 D/B/d/B/ d/B/g/B/ D/B/d/B/ d/B/g/B/ | D/A/^f/d/ f/d/c'/d/ D/d/f/d/ f/d/c'/d/ | %94
 D/d/g/d/ g/d/b/d/ D/d/g/d/ g/d/b/d/ | D/^c/e/c/ e/c/b/c/ D/c/e/c/ e/c/b/g/ | %96
 g/^f/e/d/ d'd' d'c'/b/ c'[Ac'] | c'b/a/ bb ba ag | ^fg ge ef fd | %99
 d_e/d/ e/g/b/d/ ^c/=e/a/c/ d/f/a/=c/ | =B/_a/g/f/ g/d/_e/B/ c/a/g/f/ g/d/e/c/ | %101
 ^F/A/c/_e/ d/c/a/c/ d/e/A/B/ c/F/G/A/ | z ddd dc/=B/ ca | cc/B/ ca BB/A/ Bg | b>a g/^f/g/a/ fggg | %105
 [Ag] z [A^f] z [d=f] z [G_e] z | [F_e] z [Fd][db] [dg][c_a]/[=Bg]/ a/^f/g | ^f z2 f ga bf | %108
 ^fg gg [Bg]>[ca] f>g | G,/G/B/d/ g/d/B/G/ A/g/f/_e/ f/d/=B/G/ | %110
 G,/G/c/d/ _e/c/_A/G/ ^F/e/d/c/ d/B/G/=F/ | G,/_E/G/=B/ c/_e/_A/G/ A,/C/^F/=A/ c/e/^f/a/ | %112
 B,/D/G/B/ d/^f/g/b/ C/_E/G/c/ _e/g/a/c'/ | D/c'/b/d/ ^c/b/a/=c/ =B/a/g/_B/ A/g/f/_A/ | %114
 G/f/_e/G/ ^F/e/d/=F/ E/d/c/=B/ c/_E/D/C/ | %115
[Q:1/4=48]"^Lento" ^f3- f/8g/8a/8f/8g/8a/8c/8d/8_e/8c/8d/8e/8A/8B/8c/8A/8B/8c/8^F/8G/8A/8F/8G/8A/8[Q:1/4=132]"^Allegro" z g | %116
 g/-g/4a/4g/4^f/4g/8e/8f/4 Tf>g [Bg]4 | z8 |[M:12/8][Q:1/4=72]"^Siciliana" z3 z z b bag gf z | %119
 z fg z _e/c/d z d/f/e/d/ c z z | z c/B/c z cf z _e/d/e A,/C/F/A/4c/4e/g/ | %121
 f_e/d/c/B/ dc/4d/4e/d [DB] z z z z b | [db][ca] z z z a [Dca][Bg] z z [db][ca] | %123
 z ^f/a/g z g/b/a z a/b/b/c'/ c'/4b/4a/4g/4f/4=e/4d/4c/4B/4A/4B/4c/4 | %124
 ^Fd'/a/c' G/b/a/^f/g/d/ [G_e]c z z2 _a | %125
 ^fg/d/_e/d/ z/ c/B/A/G/^F/ B,/4D/4E/4F/4G/4A/4B/4c/4d/4c/4e/4d/4 z c/B/A/G/ | %126
 G3/2 z/ z z z B [GB][FA] z z2 =B | [F=B][_Ec] z z2 c' [_ec'][db] z z2 b | %128
 [eb][fa] z z z _a [da][_eg] z z2 [cg] | [cf] z d [B_e] z f e/d/e/d/c/B/ B/A/c/B/d/c/ | %130
 _e z/ g/c' b/a/g/f/e ed/f/b _a/f/d/B/[da] | [Dg] z z2 z8 | dc z z2 c f>gf [=Bf]_e/d/c/B/ | %133
 _e>fe e z2 B,G, [Bg] fe/c/[Fd] | c/B/_ed z z f =e>fe e/g/f/e/d/c/ | %135
 f>d_e F/c'/b/a/g/f/ e/d/gf z2 c | [DB] z z3 b [db][ca] z z z a | [Fa]b z z3 z3 z3 | %138
[M:3/8][Q:1/4=144]"^Presto" g/b/g/d/g/d/ | B/d/B/G/B/G/ | D/G/D/B,/D/B,/ | G,/B,/D/G/B/d/ | %142
 g/d/c/B/A/G/ | ^F/D/F/A/d/^f/ | a/_e/d/c/B/A/ | G/D/G/B/d/g/ | b/g/_e/c/e/g/ | a/f/d/B/d/f/ | %148
 g/_e/c/A/c/e/ | D/g/^f/g/a/c/ | G/c/B/c/d/F/ | C/f/e/f/g/B/ | F/B/A/B/c/_E/ | B,/_e/d/e/f/_A/ | %154
 _E/B,/E/G/E/G/ | c/G/c/_e/c/e/ | F/C/F/A/F/A/ | d/A/d/f/d/f/ | G/D/G/B/G/B/ | _e/B/e/g/e/g/ | %160
 A/F/A/c/A/c/ | f/c/f/a/f/a/ | B/c/d/b/a/b/ | c/d/_e/b/a/b/ | d/_e/f/b/a/b/ | _e/f/g/b/a/b/ | %166
 A/c/_e/g/f/e/ | d/B/_e/B/f/_A/ | G/A/B/D/C/A/ | B,/D/C/B,/A,/G,/ | A,/G/^F/E/D/c/ | B/A/G/f/e/d/ | %172
 ^c/b/a/g/f/e/ | f/d/g/d/a/c/ | B/a/g/f/e/d/ | e/c/f/c/g/B/ | A/g/f/e/d/^c/ | d/B/e/B/f/A/ | %178
 G/f/e/d/^c/=B/ | ^c/A/d/A/e/G/ | F/d/B/G/E/c/ | D/B/G/E/C/A/ | B,/G/E/^C/A,/F/ | %183
 G,/F/E/D/^C/=B,/ | A,/D/^C/E/D/F/ | A,/E/D/F/E/G/ | A,/F/E/G/F/A/ | B,/G/^F/A/G/B/ | %188
 ^C/B/A/G/F/E/ | F/D/F/A/d/f/ | a/d/A[A,G^c] | [D^Fd]3 | g/b/g/d/g/d/ | B/d/B/G/B/G/ | %194
 D/G/D/B,/D/B,/ | G,/B,/D/G/B/d/ | g/d/c/B/A/G/ | ^F/D/F/A/d/^f/ | a/_e/d/c/B/A/ | G/D/G/B/d/g/ | %200
 b/g/_e/c/e/g/ | a/f/d/B/d/f/ | g/_e/c/A/c/e/ | D/g/^f/g/a/c/ | G/c/B/c/d/F/ | C/f/e/f/g/B/ | %206
 F/B/A/B/c/_E/ | B,/_e/d/e/f/_A/ | _E/B,/E/G/E/G/ | c/G/c/_e/c/e/ | F/C/F/A/F/A/ | d/A/d/f/d/f/ | %212
 G/D/G/B/G/B/ | _e/B/e/g/e/g/ | A/F/A/c/A/c/ | f/c/f/a/f/a/ | B/c/d/b/a/b/ | c/d/_e/b/a/b/ | %218
 d/_e/f/b/a/b/ | _e/f/g/b/a/b/ | A/c/_e/g/f/e/ | d/B/_e/B/f/_A/ | G/A/B/D/C/A/ | B,/D/C/B,/A,/G,/ | %224
 A,/G/^F/E/D/c/ | B/A/G/f/e/d/ | ^c/b/a/g/f/e/ | f/d/g/d/a/c/ | B/a/g/f/e/d/ | e/c/f/c/g/B/ | %230
 A/g/f/e/d/^c/ | d/B/e/B/f/A/ | G/f/e/d/^c/=B/ | ^c/A/d/A/e/G/ | F/d/B/G/E/c/ | D/B/G/E/C/A/ | %236
 B,/G/E/^C/A,/F/ | G,/F/E/D/^C/=B,/ | A,/D/^C/E/D/F/ | A,/E/D/F/E/G/ | A,/F/E/G/F/A/ | %241
 B,/G/^F/A/G/B/ | ^C/B/A/G/F/E/ | F/D/F/A/d/f/ | a/d/A[A,G^c] | [D^Fd]3 | D/A,/D/^F/D/F/ | %247
 A/^F/A/d/A/d/ | ^f/d/f/a/f/a/ | d'/a/^f/d/A/^F/ | D/E/^F/G/A/B/ | c/_e/c/A/c/A/ | ^F/D/F/A/d/c/ | %253
 B/d/B/G/D/B,/ | G,/A,/B,/C/D/_E/ | F/_A/F/D/F/D/ | =B,/G,/B,/D/G/F/ | _E/C/E/G/c/d/ | %258
 _e/c/_A/F/A/c/ | d/B/G/_E/G/B/ | c/_A/F/D/F/A/ | G,/c/=B/c/d/F/ | C/f/_e/f/g/B/ | F/B/_A/B/c/_E/ | %264
 B,/_e/d/e/f/_A/ | _E/_A/G/A/B/^C/ | _A,/C/F/_A/G/F/ | =B,/D/F/_A/G/F/ | C/E/F/_A/G/F/ | %269
 D/F/=B/c/d/F/ | _E/G/c/d/_e/c/ | _a/g/f/_e/d/c/ | g/d/_e/c/G/=B/ | C/F/_E/D/C/B,/ | %274
 A,/C/F/C/F/A/ | F/A/c/A/c/_e/ | c/_e/a/g/f/e/ | d/c/B/c/d/e/ | ^f/a/c'/a/f/a/ | ^f/c/f/c/A/c/ | %280
 A/^F/A/F/D/c/ | B/G/B/G/E/d/ | c/A/c/A/^F/_e/ | d/B/d/B/G/f/ | _e/c/e/c/A/g/ | ^f/d/e/f/g/a/ | %286
 b/d/g/b/c/_e/ | a/f/d/B/d/f/ | g/B/_e/g/A/c/ | f/d/B/G/B/d/ | _e/G/c/e/F/A/ | d/B/G/E/G/B/ | %292
 c/A/B/G/^F/A/ | D/E/^F/G/A/B/ | c/_e/d/g/^f/b/ | a/g/^f/e/d/c/ | B/_e/d/B/c/A/ | F/d/c/A/B/G/ | %298
 _E/c/B/G/A/^F/ | D/B/A/^F/G/_E/ | C/A/G/E/^F/D/ | B,/d/c/B/A/G/ | _e/d/c/b/a/g/ | ^f/g/a/d/_e/c/ | %304
 F/=B/d/_A/G/F/ | E/G/c/e/g/B/ | _E/A/c/G/F/E/ | D/F/B/d/f/_A/ | G/_e/B/G/_E/D/ | C/_e/c/B/A/G/ | %310
 ^F/d/A/F/D/C/ | B,/d/B/A/G/F/ | E/C/G/B,/A,/G/ | ^F/D/A/C/B,/A/ | G/_E/B/D/C/B/ | A/F/c/_E/D/c/ | %316
 B/G/D/F/E/d/ | c/A/_e/G/^F/e/ | d/B/g/B/A/c/ | B/G/^F/A/D/C/ | B,/G/^F/A/G/B/ | C/A/G/B/A/c/ | %322
 D/B/A/c/B/d/ | _E/c/=B/d/c/_e/ | ^F/_e/d/c/B/A/ | B/d/g/b/g/d/ | B/G/D[c^f] | [Bg]3 | %328
 D/A,/D/^F/D/F/ | A/^F/A/d/A/d/ | ^f/d/f/a/f/a/ | d'/a/^f/d/A/^F/ | D/E/^F/G/A/B/ | c/_e/c/A/c/A/ | %334
 ^F/D/F/A/d/c/ | B/d/B/G/D/B,/ | G,/A,/B,/C/D/_E/ | F/_A/F/D/F/D/ | =B,/G,/B,/D/G/F/ | %339
 _E/C/E/G/c/d/ | _e/c/_A/F/A/c/ | d/B/G/_E/G/B/ | c/_A/F/D/F/A/ | G,/c/=B/c/d/F/ | C/f/_e/f/g/B/ | %345
 F/B/_A/B/c/_E/ | B,/_e/d/e/f/_A/ | _E/_A/G/A/B/^C/ | _A,/C/F/_A/G/F/ | =B,/D/F/_A/G/F/ | %350
 C/E/F/_A/G/F/ | D/F/=B/c/d/F/ | _E/G/c/d/_e/c/ | _a/g/f/_e/d/c/ | g/d/_e/c/G/=B/ | %355
 C/F/_E/D/C/B,/ | A,/C/F/C/F/A/ | F/A/c/A/c/_e/ | c/_e/a/g/f/e/ | d/c/B/c/d/e/ | ^f/a/c'/a/f/a/ | %361
 ^f/c/f/c/A/c/ | A/^F/A/F/D/c/ | B/G/B/G/E/d/ | c/A/c/A/^F/_e/ | d/B/d/B/G/f/ | _e/c/e/c/A/g/ | %367
 ^f/d/e/f/g/a/ | b/d/g/b/c/_e/ | a/f/d/B/d/f/ | g/B/_e/g/A/c/ | f/d/B/G/B/d/ | _e/G/c/e/F/A/ | %373
 d/B/G/E/G/B/ | c/A/B/G/^F/A/ | D/E/^F/G/A/B/ | c/_e/d/g/^f/b/ | a/g/^f/e/d/c/ | B/_e/d/B/c/A/ | %379
 F/d/c/A/B/G/ | _E/c/B/G/A/^F/ | D/B/A/^F/G/_E/ | C/A/G/E/^F/D/ | B,/d/c/B/A/G/ | _e/d/c/b/a/g/ | %385
 ^f/g/a/d/_e/c/ | F/=B/d/_A/G/F/ | E/G/c/e/g/B/ | _E/A/c/G/F/E/ | D/F/B/d/f/_A/ | G/_e/B/G/_E/D/ | %391
 C/_e/c/B/A/G/ | ^F/d/A/F/D/C/ | B,/d/B/A/G/F/ | E/C/G/B,/A,/G/ | ^F/D/A/C/B,/A/ | G/_E/B/D/C/B/ | %397
 A/F/c/_E/D/c/ | B/G/D/F/E/d/ | c/A/_e/G/^F/e/ | d/B/g/B/A/c/ | B/G/^F/A/D/C/ | B,/G/^F/A/G/B/ | %403
 C/A/G/B/A/c/ | D/B/A/c/B/d/ | _E/c/=B/d/c/_e/ | ^F/_e/d/c/B/A/ | B/d/g/b/g/d/ | B/G/D[c^f] | %409
 !fermata![Bg]3 |] %410
V:2
 [G,DB]2 z2 [A,c]2 z2 | [D^f]2 z2 [G,Dg] z z G | F z d[Dd] [_Eg] z z2 | %3
 [Dd]2 z D [G,D]/ z/ z z [G,F] | [^CE] z z D [GB]/ z/ z z B/G/ | G z z2 z4 | x3 C B,/ z/ z z2 | %7
 [A,G]2 z2 [A,E] z z2 | D2 z2 [A,^F]/ z/ z ^f z | [G,Dg] z z2 [DA]2 [G,=B] z | D_EFG [_A,F] z z2 | %11
 x5 [Fc][B,F] z | [=A,_e]2 z2 [_Ec]/ z/ z z2 | x8 | [G,D=B]2 z2 [CG] z z [C_A] | %15
 [B,F] z g[G,Gg] [_A,_Eg] z z2 | [G,Dg] z f[=B,Gf] C z z [CG_e] | a2 x5 _a/^f/ | A/ z/ z z2 z4 | %19
 x8 | [CDc]2 z [^CEA] [DA] z z2 | [G,D]8 | x8 |[M:4/4] x8 | B z _e z A z d z | %25
 [_Ed] z [Ec] z [DB] z [DA] z | GG, z2 [C^F] z [B,G] z | [A,E] z [D^F] z [G,G]=F/_E/ [Fd]D | %28
 [_Ec] z z2 [Dc]/_e/d/c/ B/g/A/G/ | x8 | x8 | x8 | x8 | dD[Gd][Gd] [_Ec] z [Fc][Fc] | %34
 [DB] z [_EB][D=B] G/F/F/E/ E/D/D/C/ | C z z2 z4 | G, z z2 z4 | x ggg gf/_e/ fd | %38
 _ee/d/ ef/e/ d z g z | gfff f_e/d/ ec | dd/c/ d_e/d/ c z f z | f_e/d/ ef/e/ d z g z | %42
 gf/e/ fg/f/ eAAA | AG/F/ GE FDEF | [Gd][Fd] [Ed]^c/=B/ [A,Ec] z [Dd][DA] | %45
 [G,DB] z z [A,A] [B,A]G/F/ G[G,E] | F/E/D/E/ E>D DDDD | DC/B,/ CA, B, z G, z | %48
 A, z z =B, C z [A,=E] z | [D^F] z G z [DG]=F/E/ FG/F/ | [^G,E] z z2 [=G,E] z [Fd] z | %51
 [Bd] z z [Ed] [A^c] z z [Dd] | [Gd] z [Fd] z [Ed] z [A,E^c] z | [Dc] z [D=B] z [^CG_B] z [DFA] z | %54
 [B,A] z [B,G] z [A,G] z z [A,G] | [A,F] z z [A=g] [Bf] z [A^f] z | [Gg]ffe eff^c | %57
 ^cA dG/e/ G/e/G/e/ G/e/G/e/ | GFGE d4 | d^cd=B [Ac]4 | x4 D4 | D4 D4 | D4 D4 | D4 D4 | x8 | x8 | %66
 x8 | x8 | x8 | x8 | x8 | x8 | x8 | x8 | [G,D]GGG [G,G]F/_E/ FD | G, z z [_Eg] [G,Dc] z [G=B] z | %76
 [CG] z [_A,F] z [=A,^F] z [G,D] z | [C_E] z z2 CB,/A,/ B,G, | A, z FF F_E/D/ EC | %79
 [Dc]B/A/ [G,G] z [CG] z z F | B[B,F][B,F][B,F] F z z2 | x [CG][CG][CG] [G_e]d/c/ de | %82
 [F_e]d[_Ed]c [Dc]B z2 | B,B,B,A, G, z A,B, | CDDD [G,D] z A,B, | [_Ed] z c z z [DB]F z | x8 | x8 | %88
 x8 | x8 | x8 | x8 | x8 | x8 | x8 | x8 | x3 [Bd] [G_e] z z A | [^Fd] z z [Gd] [_Ed] z [=E^c] z | %98
 [Dc] z B z [CGB] z A z | [B,A] z G/ z/ z [A,G]/ z/ z F z | [G,F]/ z/ z z2 [G,_E]/ z/ z z2 | %101
 A,/ z/ z z2 z4 | B, z [=B,F] z [C_E]E/D/ E z | [D^F]A/G/ A z [DA]G/F/ G z | %104
 [E^c]3/2 z/ z2 [D=c][DB][DB][DB] | DC/B,/ [CD]A, [=B,G]C/B,/ CG, | A,B,/A,/ B,D _E z c[Ec] | %107
 [Dc]_e/c/ d[DA] [DB]e/c/ d[DA] | [_EA][DB][DB][^CA] D z A3/2 z/ | x8 | x8 | x8 | x8 | x8 | x8 | %115
 [Dc]3 z z2 D^c | [DA] z z2 [G,D]4 | x8 |[M:12/8] B,>DF _E/D/C/B,/d [Fd]cB BAE | %119
 DcB CA[B,B] FB>B AA,C | FA/G/A _EA[D=B] CG/F/[B,G] z z2 | [DB] z _E FEF B,>DF E/D/C/B,/d | %122
 F>BA G/^F/E/D/c G,>GF _E z2 | DcB DBc Dcd _e/ z/ z2 | x6 C>_EG =F/E/D/C/c | %125
 [Dc]B^F G[CG]D z2 z CD z | G,>B,D C/B,/A,/G,/G D>_ED C/=B,/A,/G,/F | %127
 x3/2 C/D F/_E/D/C/_e G>DG F/=E/D/C/=e | x3/2 F/f _e/d/c/B/d z3/2 B,/_E D/C/B,/A,/A | %129
 DG,/g/B CF/c/A [B,F]G_E F z2 | [CG] z z2 z [A,F] [B,F] z z3 [B,F] | %131
 d/B/c/A/D/f/ c/A/B/G/C/_e/ B/G/A/F/B,/d/ _E/d/gf/e/ | F>Ac B/A/G/F/_E [Dc] z z [G,D] z2 | %133
 [CG] z z [A,F]d/c/B/A/ G/F/_E/D/E DEF | G>_EF Eg/_e/[DB] [CGB] z z [B,Gc] z2 | %135
 [A,Fc] z z2 z3 [_EA][DB] D/4E/4F/d/B/E | B,>DF _E/D/C/B,/d F>Ac B/A/G/F/_e | [B,_e]d z2 z8 | %138
[M:3/8] x3 | x3 | x3 | x3 | x3 | x3 | x3 | x3 | x3 | x3 | x3 | x3 | x3 | x3 | x3 | x3 | x3 | x3 | %156
 x3 | x3 | x3 | x3 | x3 | x3 | x3 | x3 | x3 | x3 | x3 | x3 | x3 | x3 | x3 | x3 | x3 | x3 | x3 | %175
 x3 | x3 | x3 | x3 | x3 | x3 | x3 | x3 | x3 | x3 | x3 | x3 | x3 | x3 | x3 | x3 | x3 | x3 | x3 | %194
 x3 | x3 | x3 | x3 | x3 | x3 | x3 | x3 | x3 | x3 | x3 | x3 | x3 | x3 | x3 | x3 | x3 | x3 | x3 | %213
 x3 | x3 | x3 | x3 | x3 | x3 | x3 | x3 | x3 | x3 | x3 | x3 | x3 | x3 | x3 | x3 | x3 | x3 | x3 | %232
 x3 | x3 | x3 | x3 | x3 | x3 | x3 | x3 | x3 | x3 | x3 | x3 | x3 | x3 | x3 | x3 | x3 | x3 | x3 | %251
 x3 | x3 | x3 | x3 | x3 | x3 | x3 | x3 | x3 | x3 | x3 | x3 | x3 | x3 | x3 | x3 | x3 | x3 | x3 | %270
 x3 | x3 | x3 | x3 | x3 | x3 | x3 | x3 | x3 | x3 | x3 | x3 | x3 | x3 | x3 | x3 | x3 | x3 | x3 | %289
 x3 | x3 | x3 | x3 | x3 | x3 | x3 | x3 | x3 | x3 | x3 | x3 | x3 | x3 | x3 | x3 | x3 | x3 | x3 | %308
 x3 | x3 | x3 | x3 | x3 | x3 | x3 | x3 | x3 | x3 | x3 | x3 | x3 | x3 | x3 | x3 | x3 | x3 | x2 D | %327
 [G,D]3 | x3 | x3 | x3 | x3 | x3 | x3 | x3 | x3 | x3 | x3 | x3 | x3 | x3 | x3 | x3 | x3 | x3 | x3 | %346
 x3 | x3 | x3 | x3 | x3 | x3 | x3 | x3 | x3 | x3 | x3 | x3 | x3 | x3 | x3 | x3 | x3 | x3 | x3 | %365
 x3 | x3 | x3 | x3 | x3 | x3 | x3 | x3 | x3 | x3 | x3 | x3 | x3 | x3 | x3 | x3 | x3 | x3 | x3 | %384
 x3 | x3 | x3 | x3 | x3 | x3 | x3 | x3 | x3 | x3 | x3 | x3 | x3 | x3 | x3 | x3 | x3 | x3 | x3 | %403
 x3 | x3 | x3 | x3 | x3 | x2 D | [G,D]3 |] %410

